X:1
T:Queen of May
L:1/8
Q:1/4=120
M:4/4
K:Edor
V:1
B^c d^f ef dB | AD F/E/D FA A/A/A | Bc df ef dB"^A7" | dB Ad BE FA |
BB/B/ BA Bc dB | AD F/E/D FA A/A/A | Bc df{f} ed Bc"^B6" | dB Ad BE FA || 
B/B/B eB fB eB | de fg af df"^B7" | B/B/B eB fB eB | dB Ad BE FA |
B/B/B eB fB eB"^G" | d>e f<g af eg | fb{c'} ba fg{g} fe"^F#10" | dB Ad BE FA |]  


